X:073 
T:Green Fields of Glentown (reel), The 
B:CRE3.184 (Pairceanna Glasa Bhaile an Ghleanna)
C:Tommy Peoples
F:file ID: cre.3/073green_f
N:This shows up in CRE2 as a "gan ainm"
R:reel
L:1/8
Q:180
M:C
K:Am
EA,A,2 E3B,|G,B,B,2 G,A,B,D|EA,A,2 EG,B,D|BdeB dBAB|
"5"eBB2 eBdB|AEE2 DG,B,D|A,EE2 A,EB,D|GEDB, B,A,A,2:|
"9"(3|:ABA EA BAEA|G2DB, G,A,B,D|EAA2 EABd|edBA gedB|
"13"bgg2 afge|dBB2 AEDB,|A,EE2 A,EB,D|GEDB, B,A,A,2:|
"17"(3|:ABA EA BAA2|aged bage|G2BG BGBd|gedc Bgdg|
"21"e2Ae fedB|AEE2 DG,B,D|A,2E2 EDEG|DB,GB, B,A,A,2:|

%%%

